assets/media/img/cooperation-franchise.svg

<svg width="60" height="60" viewBox="0 0 60 60" fill="none" xmlns="http://www.w3.org/2000/svg">
<path fill-rule="evenodd" clip-rule="evenodd" d="M19 1H40C41.1046 1 42 1.89543 42 3V6H39.3448H39.2759H38.3448H38.2759H35.6207H35.5517H34.6207H34.5517H31.8966H31.8276H30.8966H30.8276H28.1724H28.1034H27.1724H27.1034H24.4483H24.3793H23.4483H23.3793H20.7241H20.6552H19.7241H19.6552H17V3C17 1.89543 17.8954 1 19 1ZM16 6V3C16 1.34315 17.3431 0 19 0H40C41.6569 0 43 1.34315 43 3V6V7V8.67241C43 9.84672 42.1304 10.8179 41 10.9771V22C41 23.6569 39.6569 25 38 25H37H36H32H31H21C19.3431 25 18 23.6569 18 22V10.9771C16.8696 10.8179 16 9.84671 16 8.67241V7V6ZM32 24H36V15H32V24ZM37 24H38C39.1046 24 40 23.1046 40 22V10.9014C39.5196 10.7567 39.1046 10.4609 38.8103 10.0692C38.3857 10.6344 37.7097 11 36.9483 11C36.1869 11 35.5109 10.6344 35.0862 10.0692C34.6616 10.6344 33.9855 11 33.2241 11C32.4627 11 31.7867 10.6344 31.3621 10.0692C30.9374 10.6344 30.2614 11 29.5 11C28.7386 11 28.0626 10.6344 27.6379 10.0692C27.2133 10.6344 26.5373 11 25.7759 11C25.0145 11 24.3385 10.6344 23.9138 10.0692C23.4891 10.6344 22.8131 11 22.0517 11C21.2903 11 20.6143 10.6344 20.1897 10.0692C19.8954 10.4609 19.4804 10.7567 19 10.9014V22C19 23.1046 19.8954 24 21 24H31V15C31 14.4477 31.4477 14 32 14H36C36.5523 14 37 14.4477 37 15V24ZM42 8.67241C42 9.40562 41.4056 10 40.6724 10C39.9392 10 39.3448 9.40562 39.3448 8.67241V7H42V8.67241ZM19.6552 8.67241C19.6552 9.40562 19.0608 10 18.3276 10C17.5944 10 17 9.40562 17 8.67241V7H19.6552V8.67241ZM38.2759 7H35.6207V8.67241C35.6207 9.40562 36.2151 10 36.9483 10C37.6815 10 38.2759 9.40562 38.2759 8.67241V7ZM34.5517 7H31.8966V8.67241C31.8966 9.40562 32.4909 10 33.2241 10C33.9573 10 34.5517 9.40562 34.5517 8.67241V7ZM30.8276 7H28.1724V8.67241C28.1724 9.40562 28.7668 10 29.5 10C30.2332 10 30.8276 9.40562 30.8276 8.67241V7ZM27.1034 7H24.4483V8.67241C24.4483 9.40562 25.0427 10 25.7759 10C26.5091 10 27.1034 9.40562 27.1034 8.67241V7ZM23.3793 7H20.7241V8.67241C20.7241 9.40562 21.3185 10 22.0517 10C22.7849 10 23.3793 9.40562 23.3793 8.67241V7ZM27 15H23V19H27V15ZM23 14C22.4477 14 22 14.4477 22 15V19C22 19.5523 22.4477 20 23 20H27C27.5523 20 28 19.5523 28 19V15C28 14.4477 27.5523 14 27 14H23ZM3 39H19.9999C21.1045 39 21.9999 39.8954 21.9999 41V43.16H1V41C1 39.8954 1.89543 39 3 39ZM0 41C0 39.3431 1.34315 38 3 38H19.9999C21.6568 38 22.9999 39.3431 22.9999 41V43.16V43.28H23.0002V44.28V45.6972C23.0002 46.6977 22.2592 47.5251 21.2961 47.6606V56.9999C21.2961 58.6568 19.953 59.9999 18.2961 59.9999H17.8884V60.0001H16.8884H13.7773H12.7773V59.9999H4.70361C3.04676 59.9999 1.70361 58.6568 1.70361 56.9999V47.6605C0.740742 47.5248 0 46.6975 0 45.6972V44.28V44.16V43.28V43.16V41ZM16.8884 58.9999H13.7773V51.3201H16.8884V58.9999ZM17.8884 58.9999V51.3201C17.8884 50.7678 17.4407 50.3201 16.8884 50.3201H13.7773C13.2251 50.3201 12.7773 50.7678 12.7773 51.3201V58.9999H4.70361C3.59904 58.9999 2.70361 58.1045 2.70361 56.9999V47.5449C3.05 47.4096 3.34903 47.1798 3.56893 46.8871C3.93068 47.3686 4.50653 47.68 5.15511 47.68C5.8037 47.68 6.37955 47.3686 6.7413 46.8871C7.10304 47.3686 7.67889 47.68 8.32748 47.68C8.97606 47.68 9.55191 47.3686 9.91366 46.8871C10.2754 47.3686 10.8513 47.68 11.4998 47.68C12.1484 47.68 12.7243 47.3686 13.086 46.8871C13.4478 47.3686 14.0236 47.68 14.6722 47.68C15.3208 47.68 15.8966 47.3686 16.2584 46.8871C16.6201 47.3686 17.196 47.68 17.8446 47.68C18.4933 47.68 19.0693 47.3684 19.431 46.8868C19.6508 47.1795 19.9498 47.4094 20.2961 47.5447V56.9999C20.2961 58.1045 19.4007 58.9999 18.2961 58.9999H17.8884ZM1 44.28H2.9655V45.6972C2.9655 46.24 2.52551 46.68 1.98275 46.68C1.43999 46.68 1 46.24 1 45.6972V44.28ZM4.17236 44.28H6.13786V45.6972C6.13786 46.24 5.69787 46.68 5.15511 46.68C4.61236 46.68 4.17236 46.24 4.17236 45.6972V44.28ZM9.31023 44.28H7.34473V45.6972C7.34473 46.24 7.78472 46.68 8.32748 46.68C8.87024 46.68 9.31023 46.24 9.31023 45.6972V44.28ZM10.5171 44.28H12.4826V45.6972C12.4826 46.24 12.0426 46.68 11.4998 46.68C10.9571 46.68 10.5171 46.24 10.5171 45.6972V44.28ZM15.655 44.28H13.6895V45.6972C13.6895 46.24 14.1294 46.68 14.6722 46.68C15.215 46.68 15.655 46.24 15.655 45.6972V44.28ZM16.8618 44.28H18.8273V45.6972C18.8273 46.24 18.3873 46.68 17.8446 46.68C17.3018 46.68 16.8618 46.24 16.8618 45.6972V44.28ZM22.0002 44.28H20.0347V45.6972C20.0347 46.24 20.4747 46.68 21.0174 46.68C21.5602 46.68 22.0002 46.24 22.0002 45.6972V44.28ZM9.22193 51.3201H6.11084V54.6001H9.22193V51.3201ZM6.11084 50.3201C5.55856 50.3201 5.11084 50.7678 5.11084 51.3201V54.6001C5.11084 55.1524 5.55856 55.6001 6.11084 55.6001H9.22193C9.77422 55.6001 10.2219 55.1524 10.2219 54.6001V51.3201C10.2219 50.7678 9.77421 50.3201 9.22193 50.3201H6.11084ZM56.9999 39H40C38.8954 39 38 39.8954 38 41V43.16H58.9999V41C58.9999 39.8954 58.1045 39 56.9999 39ZM40 38C38.3431 38 37 39.3431 37 41V43.16V43.28V44.16V44.28V45.6972C37 46.6975 37.7407 47.5248 38.7036 47.6605V56.9999C38.7036 58.6568 40.0468 59.9999 41.7036 59.9999H49.7773V60.0001H50.7773H53.8884H54.8884V59.9999H55.2961C56.953 59.9999 58.2961 58.6568 58.2961 56.9999V47.6606C59.2592 47.5251 60.0002 46.6977 60.0002 45.6972V44.28V43.28H59.9999V43.16V41C59.9999 39.3431 58.6568 38 56.9999 38H40ZM50.7773 58.9999H53.8884V51.3201H50.7773V58.9999ZM54.8884 51.3201V58.9999H55.2961C56.4007 58.9999 57.2961 58.1045 57.2961 56.9999V47.5447C56.9498 47.4094 56.6508 47.1795 56.431 46.8868C56.0693 47.3684 55.4933 47.68 54.8446 47.68C54.196 47.68 53.6201 47.3686 53.2584 46.8871C52.8966 47.3686 52.3208 47.68 51.6722 47.68C51.0236 47.68 50.4478 47.3686 50.086 46.8871C49.7243 47.3686 49.1484 47.68 48.4998 47.68C47.8513 47.68 47.2754 47.3686 46.9137 46.8871C46.5519 47.3686 45.9761 47.68 45.3275 47.68C44.6789 47.68 44.103 47.3686 43.7413 46.8871C43.3796 47.3686 42.8037 47.68 42.1551 47.68C41.5065 47.68 40.9307 47.3686 40.5689 46.8871C40.349 47.1798 40.05 47.4096 39.7036 47.5449V56.9999C39.7036 58.1045 40.599 58.9999 41.7036 58.9999H49.7773V51.3201C49.7773 50.7678 50.2251 50.3201 50.7773 50.3201H53.8884C54.4407 50.3201 54.8884 50.7678 54.8884 51.3201ZM39.9655 44.28H38V45.6972C38 46.24 38.44 46.68 38.9827 46.68C39.5255 46.68 39.9655 46.24 39.9655 45.6972V44.28ZM43.1379 44.28H41.1724V45.6972C41.1724 46.24 41.6124 46.68 42.1551 46.68C42.6979 46.68 43.1379 46.24 43.1379 45.6972V44.28ZM44.3447 44.28H46.3102V45.6972C46.3102 46.24 45.8702 46.68 45.3275 46.68C44.7847 46.68 44.3447 46.24 44.3447 45.6972V44.28ZM49.4826 44.28H47.5171V45.6972C47.5171 46.24 47.9571 46.68 48.4998 46.68C49.0426 46.68 49.4826 46.24 49.4826 45.6972V44.28ZM50.6895 44.28H52.655V45.6972C52.655 46.24 52.215 46.68 51.6722 46.68C51.1294 46.68 50.6895 46.24 50.6895 45.6972V44.28ZM55.8273 44.28H53.8618V45.6972C53.8618 46.24 54.3018 46.68 54.8446 46.68C55.3873 46.68 55.8273 46.24 55.8273 45.6972V44.28ZM57.0347 44.28H59.0002V45.6972C59.0002 46.24 58.5602 46.68 58.0174 46.68C57.4747 46.68 57.0347 46.24 57.0347 45.6972V44.28ZM43.1108 51.3201H46.2219V54.6001H43.1108V51.3201ZM42.1108 51.3201C42.1108 50.7678 42.5586 50.3201 43.1108 50.3201H46.2219C46.7742 50.3201 47.2219 50.7678 47.2219 51.3201V54.6001C47.2219 55.1524 46.7742 55.6001 46.2219 55.6001H43.1108C42.5586 55.6001 42.1108 55.1524 42.1108 54.6001V51.3201ZM29.5 27C29.7761 27 30 27.2239 30 27.5V30C30 30.5523 30.4477 31 31 31H48.5C48.7761 31 49 31.2239 49 31.5V35.5C49 35.7761 48.7761 36 48.5 36C48.2239 36 48 35.7761 48 35.5V33C48 32.4477 47.5523 32 47 32H29.5005H29.5H29.4995H13C12.4477 32 12 32.4477 12 33V35.5C12 35.7761 11.7761 36 11.5 36C11.2239 36 11 35.7761 11 35.5V31.5C11 31.2239 11.2239 31 11.5 31H28C28.5523 31 29 30.5523 29 30V27.5C29 27.2239 29.2239 27 29.5 27Z" fill="#46403C"/>
</svg>

<svg width="60" height="60" fill="none" xmlns="http://www.w3.org/2000/svg"><path fill-rule="evenodd" clip-rule="evenodd" d="M19 1h21a2 2 0 012 2v3H17V3a2 2 0 012-2zm-3 5V3a3 3 0 013-3h21a3 3 0 013 3v5.672c0 1.175-.87 2.146-2 2.305V22a3 3 0 01-3 3H21a3 3 0 01-3-3V10.977c-1.13-.16-2-1.13-2-2.305V6zm16 18h4v-9h-4v9zm5 0h1a2 2 0 002-2V10.901a2.331 2.331 0 01-1.19-.832c-.424.565-1.1.931-1.862.931a2.324 2.324 0 01-1.862-.93c-.424.564-1.1.93-1.862.93a2.324 2.324 0 01-1.862-.93c-.425.564-1.1.93-1.862.93a2.324 2.324 0 01-1.862-.93c-.425.564-1.1.93-1.862.93a2.324 2.324 0 01-1.862-.93c-.425.564-1.1.93-1.862.93a2.324 2.324 0 01-1.862-.93 2.34 2.34 0 01-1.19.831V22a2 2 0 002 2h10v-9a1 1 0 011-1h4a1 1 0 011 1v9zm5-15.328a1.328 1.328 0 01-2.655 0V7H42v1.672zm-22.345 0a1.328 1.328 0 01-2.655 0V7h2.655v1.672zM38.275 7h-2.654v1.672a1.328 1.328 0 002.655 0V7zm-3.723 0h-2.655v1.672a1.328 1.328 0 102.655 0V7zm-3.724 0h-2.656v1.672a1.328 1.328 0 002.656 0V7zm-3.725 0h-2.655v1.672a1.328 1.328 0 002.655 0V7zM23.38 7h-2.655v1.672a1.328 1.328 0 002.655 0V7zM27 15h-4v4h4v-4zm-4-1a1 1 0 00-1 1v4a1 1 0 001 1h4a1 1 0 001-1v-4a1 1 0 00-1-1h-4zM3 39h17a2 2 0 012 2v2.16H1V41a2 2 0 012-2zm-3 2a3 3 0 013-3h17a3 3 0 013 3v4.697c0 1-.74 1.828-1.704 1.964V57a3 3 0 01-3 3H4.704a3 3 0 01-3-3v-9.34A1.983 1.983 0 010 45.697V41zm16.888 18h-3.11v-7.68h3.11V59zm1 0v-7.68a1 1 0 00-1-1h-3.11a1 1 0 00-1 1V59H4.703a2 2 0 01-2-2v-9.455c.346-.135.645-.365.865-.658a1.98 1.98 0 001.586.793 1.98 1.98 0 001.586-.793 1.98 1.98 0 001.586.793 1.98 1.98 0 001.587-.793 1.98 1.98 0 001.586.793 1.98 1.98 0 001.586-.793 1.98 1.98 0 001.586.793 1.98 1.98 0 001.586-.793 1.98 1.98 0 001.587.793 1.98 1.98 0 001.586-.793c.22.292.519.522.865.658V57a2 2 0 01-2 2h-.408zM1 44.28h1.966v1.417a.983.983 0 11-1.966 0V44.28zm3.172 0h1.966v1.417a.983.983 0 11-1.966 0V44.28zm5.138 0H7.345v1.417a.983.983 0 101.965 0V44.28zm1.207 0h1.966v1.417a.983.983 0 11-1.966 0V44.28zm5.138 0H13.69v1.417a.983.983 0 101.965 0V44.28zm1.207 0h1.965v1.417a.983.983 0 11-1.965 0V44.28zm5.138 0h-1.965v1.417a.983.983 0 101.965 0V44.28zM9.222 51.32H6.11v3.28h3.11v-3.28zm-3.111-1a1 1 0 00-1 1v3.28a1 1 0 001 1h3.11a1 1 0 001-1v-3.28a1 1 0 00-1-1h-3.11zM57 39H40a2 2 0 00-2 2v2.16h21V41a2 2 0 00-2-2zm-17-1a3 3 0 00-3 3v4.697c0 1 .74 1.828 1.704 1.963V57a3 3 0 003 3h13.592a3 3 0 003-3v-9.34A1.983 1.983 0 0060 45.698V41a3 3 0 00-3-3H40zm10.777 21h3.111v-7.68h-3.11V59zm4.111-7.68V59h.408a2 2 0 002-2v-9.455a1.988 1.988 0 01-.865-.658 1.98 1.98 0 01-1.586.793 1.98 1.98 0 01-1.587-.793 1.98 1.98 0 01-1.586.793 1.98 1.98 0 01-1.586-.793 1.98 1.98 0 01-1.586.793 1.98 1.98 0 01-1.586-.793 1.98 1.98 0 01-1.587.793 1.98 1.98 0 01-1.586-.793 1.98 1.98 0 01-1.586.793 1.98 1.98 0 01-1.586-.793c-.22.293-.519.523-.865.658V57a2 2 0 002 2h8.073v-7.68a1 1 0 011-1h3.111a1 1 0 011 1zm-14.922-7.04H38v1.417a.983.983 0 101.965 0V44.28zm3.172 0h-1.966v1.417a.983.983 0 101.966 0V44.28zm1.207 0h1.965v1.417a.983.983 0 11-1.965 0V44.28zm5.138 0h-1.966v1.417a.983.983 0 101.966 0V44.28zm1.207 0h1.965v1.417a.983.983 0 11-1.965 0V44.28zm5.137 0h-1.965v1.417a.983.983 0 101.965 0V44.28zm1.208 0H59v1.417a.983.983 0 11-1.965 0V44.28zM43.11 51.32h3.11v3.28h-3.11v-3.28zm-1 0a1 1 0 011-1h3.11a1 1 0 011 1v3.28a1 1 0 01-1 1h-3.11a1 1 0 01-1-1v-3.28zM29.5 27a.5.5 0 01.5.5V30a1 1 0 001 1h17.5a.5.5 0 01.5.5v4a.5.5 0 01-1 0V33a1 1 0 00-1-1H13a1 1 0 00-1 1v2.5a.5.5 0 01-1 0v-4a.5.5 0 01.5-.5H28a1 1 0 001-1v-2.5a.5.5 0 01.5-.5z" fill="#46403C"/></svg>
